X:20
T:Martin Rochford's Reel
R:reel
D:Patrick Street 1.
Z:id:hn-reel-20
M:C|
K:Dm
F2CD FGAc|cAGc Ad~d2|FDCD F2dA|1 cAGB ADDE:|2 cAGB ADD2||
f2df edce|Addc Adde|f2af edcA|cAGB ADD2|
f2df edce|Addc d3e|faag eggd|cAGB ADDE||
<end>
<start>
